X:227
T:The Reconciliation Reel                                                                           
R:reel                                                                                              
D:Matt Molloy & Sean Keane: Contentment is Wealth.                                                  
Z:id:hn-reel-95                                                                                     
M:C|                                                                                                
K:A                                                                                                 
A2 (3cBA eAfA|eAfA ecBc|A2 (3cBA eAfA|ecBc AFEF|                                                    
A2 (3cBA eAfA|eAfA ecBc|ABAF EAcf|ecBc AdcB:|                                                       
|:ABce a3f|efed cdcB|ABce a2ga|fbba gefg|                                                           
a3e faec|dBcA BAFG|ABAF EAcf|ecBc AdcB:|
